X: 1081
M: 2/4
L: 1/16
K: D
|:\
|: cd |\
e4 e4 | e2de fedc | B2c2 d2^d2 | (e4 cE)Ac |\
e4 e4 | e2de fedc | B2f>f e>e ^G>G | A2BA ^GABc ]
d2dd dddd | d2 D2F2A2 | d2A2 F2D2 | A4 F3G ]\
(B4 A4) | z3AB3c | (e4 d4) | z3dc3B |\
(B4 A4) | z3AB3c | (e4 d4) | z3dc3B |\
(B4 A3)F | (A4 G3)E | D2d2 dcde | f2c2 dcde |
f2gf edcB | A2 a4 c2 | d2d2 dcde | f2A2 dcde |\
f2gf edcB | A2 a4 c2 | defg afge | d4 d4 | d4 z4 :|

